tools/download-figma-icons/icons/solid/handshake.svg

<svg width="24" height="24" viewBox="0 0 24 24" fill="none" xmlns="http://www.w3.org/2000/svg">
<path fill-rule="evenodd" clip-rule="evenodd" d="M19.635 14.1568L13.9725 9.19931C13.8383 9.07931 13.665 9.01181 13.4775 9.01181H10.4858C10.2683 9.01181 10.065 9.10181 9.92325 9.26681C9.17325 10.1143 8.4375 10.5418 7.725 10.4826C7.08075 10.4443 6.54825 10.0476 6.225 9.72431L8.655 6.64931L11.9858 6.01181L19.23 7.39181L20.8275 13.7593L19.635 14.1568ZM23.67 3.13179C23.4607 2.98929 23.2057 2.95929 22.9725 3.05679L19.1925 4.57929C18.84 4.72179 18.6525 5.09679 18.7432 5.44929L18.825 5.78679L12.12 4.51929C12.03 4.49679 11.9325 4.49679 11.8425 4.51929L8.1075 5.22429C8.0925 5.22429 8.07 5.23254 8.05575 5.23254L5.1375 5.78679L5.22 5.44929C5.31 5.09679 5.1225 4.72179 4.7775 4.57929L1.035 3.05679C0.80325 2.96679 0.54 2.98929 0.33075 3.13179C0.1275 3.26679 0 3.50679 0 3.75429V14.2543C0 14.6743 0.33825 15.0043 0.75 15.0043H1.98L8.6625 20.5393C9.0375 20.8393 9.48825 20.9968 9.9525 20.9968C10.0275 20.9968 10.095 20.9968 10.1625 20.9893C10.7108 20.9368 11.1975 20.6668 11.5425 20.2468C11.6625 20.1043 11.7525 19.9468 11.8275 19.7818L12.045 19.9543C12.465 20.2993 13.005 20.4643 13.5375 20.4043C14.0857 20.3518 14.5725 20.0893 14.9175 19.6618C15.0532 19.4968 15.1507 19.3243 15.225 19.1368C15.5025 19.2793 15.81 19.3543 16.125 19.3543C16.1925 19.3543 16.2682 19.3543 16.3358 19.3468C16.875 19.295 17.37 19.0318 17.715 18.6043C17.85 18.4393 17.9475 18.2668 18.0233 18.0793C18.3008 18.2293 18.6075 18.2975 18.9233 18.2975C18.9908 18.2975 19.065 18.2975 19.1325 18.2893C19.6733 18.2368 20.16 17.9743 20.505 17.5475C20.85 17.1268 21.015 16.5943 20.9557 16.0543C20.9325 15.8068 20.8657 15.5743 20.7682 15.3643L21.84 15.0043H23.25C23.6625 15.0043 24 14.6743 24 14.2543V3.75429C24 3.50679 23.88 3.27429 23.67 3.13179Z" fill="black"/>
</svg>

<svg width="24" height="24" viewBox="0 0 24 24" fill="none" xmlns="http://www.w3.org/2000/svg"><path fill-rule="evenodd" clip-rule="evenodd" d="m19.635 14.157-5.663-4.958a.737.737 0 0 0-.495-.187h-2.991a.735.735 0 0 0-.563.255c-.75.847-1.486 1.275-2.198 1.216-.644-.039-1.177-.435-1.5-.759l2.43-3.075 3.33-.637 7.245 1.38 1.598 6.367-1.193.398ZM23.67 3.132a.725.725 0 0 0-.698-.075l-3.78 1.522a.744.744 0 0 0-.449.87l.082.338-6.705-1.268a.579.579 0 0 0-.277 0l-3.736.705c-.014 0-.037.009-.051.009l-2.918.554.082-.338a.748.748 0 0 0-.442-.87L1.034 3.057a.76.76 0 0 0-.704.075.757.757 0 0 0-.331.622v10.5c0 .42.338.75.75.75h1.23l6.682 5.535c.375.3.826.458 1.29.458.075 0 .143 0 .21-.008a2.028 2.028 0 0 0 1.665-1.207l.218.172c.42.345.96.51 1.492.45a2 2 0 0 0 1.38-.742 1.93 1.93 0 0 0 .308-.525c.277.142.585.217.9.217.067 0 .143 0 .21-.007a2.013 2.013 0 0 0 1.38-.743 1.99 1.99 0 0 0 .308-.525c.278.15.585.218.9.218.068 0 .142 0 .21-.008a2 2 0 0 0 1.372-.742c.345-.42.51-.953.45-1.493a2.105 2.105 0 0 0-.187-.69l1.072-.36h1.41c.413 0 .75-.33.75-.75v-10.5c0-.247-.12-.48-.33-.622Z" fill="currentColor"/></svg>
